X: 8555
T: Crinan Puffer, The
R: slide
M: 12/8
K: Dmajor
A2A ddd B2B eee|c2c B2c d2f A3|
A2A d2d B2B e2e|c2c B2c d3 d3|
A2A ddd B2B eee|c2c B2c d2e f3|
A2A d2d B2B e2e|c2c B2c d3 d3|
a2a f2a g2f e2e|c2c B2c d2f A3|
a2a f2a g2f eee|c2c B2c d3 d3|
a2a f2a g2f e2e|c2c B2c d2e f3|
a2a f2a g2f eee|c2c B2c d3 d3|

